src/assets/img/Craft_Icon_Laptop.svg

<svg width="24" height="24" viewBox="0 0 24 24" fill="none" xmlns="http://www.w3.org/2000/svg">
<g clip-path="url(#clip0_117_5836)">
<path d="M21.1233 5.59827H2.87706C2.66237 5.59827 2.48828 5.77231 2.48828 5.98705V15.9395C2.48828 16.1542 2.66233 16.3283 2.87706 16.3283H21.1233C21.338 16.3283 21.5121 16.1543 21.5121 15.9395V5.98705C21.512 5.77231 21.338 5.59827 21.1233 5.59827ZM20.7345 15.5507H3.2658V9.69327H20.7345L20.7345 15.5507ZM20.7345 8.91575H3.2658V6.37578H20.7345L20.7345 8.91575Z" fill="#393931"/>
<path d="M9.512 7.25696H4.53575C4.32107 7.25696 4.14697 7.43101 4.14697 7.64574C4.14697 7.86043 4.32102 8.03452 4.53575 8.03452H9.512C9.72669 8.03452 9.90079 7.86047 9.90079 7.64574C9.90079 7.43105 9.72669 7.25696 9.512 7.25696Z" fill="#393931"/>
<path d="M11.9999 7.25696H11.1705C10.9558 7.25696 10.7817 7.43101 10.7817 7.64574C10.7817 7.86043 10.9558 8.03452 11.1705 8.03452H11.9999C12.2146 8.03452 12.3887 7.86047 12.3887 7.64574C12.3887 7.43105 12.2146 7.25696 11.9999 7.25696Z" fill="#393931"/>
<path d="M14.4882 7.25696H13.6588C13.4441 7.25696 13.27 7.43101 13.27 7.64574C13.27 7.86043 13.4441 8.03452 13.6588 8.03452H14.4882C14.7028 8.03452 14.8769 7.86047 14.8769 7.64574C14.8769 7.43105 14.7028 7.25696 14.4882 7.25696Z" fill="#393931"/>
<path d="M16.9764 7.25696H16.1471C15.9324 7.25696 15.7583 7.43101 15.7583 7.64574C15.7583 7.86043 15.9323 8.03452 16.1471 8.03452H16.9764C17.1911 8.03452 17.3652 7.86047 17.3652 7.64574C17.3652 7.43105 17.1911 7.25696 16.9764 7.25696Z" fill="#393931"/>
<path d="M19.4642 7.25696H18.6349C18.4202 7.25696 18.2461 7.43101 18.2461 7.64574C18.2461 7.86043 18.4201 8.03452 18.6349 8.03452H19.4642C19.6789 8.03452 19.853 7.86047 19.853 7.64574C19.853 7.43105 19.6789 7.25696 19.4642 7.25696Z" fill="#393931"/>
<path d="M11.1708 10.5746H4.53575C4.32107 10.5746 4.14697 10.7486 4.14697 10.9634V14.2809C4.14697 14.4955 4.32102 14.6696 4.53575 14.6696H11.1707C11.3854 14.6696 11.5595 14.4956 11.5595 14.2809V10.9634C11.5595 10.7486 11.3855 10.5746 11.1708 10.5746ZM10.782 13.8921H4.92453V13.0109H10.782V13.8921ZM10.782 12.2333H4.92453V11.3521H10.782V12.2333Z" fill="#393931"/>
<path d="M19.4643 10.5746H16.9762C16.7615 10.5746 16.5874 10.7486 16.5874 10.9634V14.2809C16.5874 14.4955 16.7614 14.6696 16.9762 14.6696H19.4643C19.679 14.6696 19.8531 14.4956 19.8531 14.2809V10.9634C19.853 10.7486 19.679 10.5746 19.4643 10.5746ZM19.0755 13.8921H17.365V13.0109H19.0755V13.8921ZM19.0755 12.2333H17.365V11.3521H19.0755V12.2333Z" fill="#393931"/>
<path d="M23.6113 17.2096H23.1706V5.57242C23.1706 4.67209 22.4381 3.93958 21.5378 3.93958H2.46225C1.56192 3.93958 0.829406 4.67204 0.829406 5.57242V17.2096H0.388781C0.174094 17.2096 0 17.3836 0 17.5983V18.4277C0 19.328 0.732516 20.0605 1.63284 20.0605H22.3672C23.2675 20.0605 24 19.328 24 18.4277V17.5983C24 17.3836 23.826 17.2096 23.6113 17.2096ZM1.60697 5.57242C1.60697 5.10081 1.99064 4.71714 2.46225 4.71714H21.5378C22.0095 4.71714 22.3931 5.10081 22.3931 5.57242V17.2096H1.60697V5.57242ZM23.2225 18.4277C23.2225 18.8993 22.8389 19.283 22.3673 19.283H1.63289C1.16128 19.283 0.777609 18.8993 0.777609 18.4277V17.9871H9.53916C9.5386 17.9957 9.53785 18.0042 9.53785 18.013C9.53785 18.2277 9.71189 18.4018 9.92663 18.4018H14.0735C14.2882 18.4018 14.4623 18.2277 14.4623 18.013C14.4623 18.0042 14.4615 17.9957 14.461 17.9871H23.2225V18.4277Z" fill="#393931"/>
<path d="M15.3173 10.5746H12.8292C12.6145 10.5746 12.4404 10.7486 12.4404 10.9634V14.2809C12.4404 14.4955 12.6145 14.6696 12.8292 14.6696H15.3173C15.532 14.6696 15.7061 14.4956 15.7061 14.2809V10.9634C15.7061 10.7486 15.5321 10.5746 15.3173 10.5746ZM14.9286 13.8921H13.218V13.0109H14.9286V13.8921ZM14.9286 12.2333H13.218V11.3521H14.9286V12.2333Z" fill="#393931"/>
</g>
<defs>
<clipPath id="clip0_117_5836">
<rect width="24" height="24" fill="white"/>
</clipPath>
</defs>
</svg>

<?xml version="1.0" encoding="utf-8"?>
<!-- Generator: Adobe Illustrator 27.1.1, SVG Export Plug-In . SVG Version: 6.00 Build 0)  -->
<svg version="1.1" id="Слой_1" xmlns="http://www.w3.org/2000/svg" xmlns:xlink="http://www.w3.org/1999/xlink" x="0px" y="0px"
	 viewBox="0 0 24 24" style="enable-background:new 0 0 24 24;" xml:space="preserve">
<style type="text/css">
	.st0{clip-path:url(#SVGID_00000032640901052968181030000018049645984175969696_);}
	.st1{fill:#393931;}
</style>
<g>
	<defs>
		<rect id="SVGID_1_" y="0" width="24" height="24"/>
	</defs>
	<clipPath id="SVGID_00000146501619718335778160000017764081007598097832_">
		<use xlink:href="#SVGID_1_"  style="overflow:visible;"/>
	</clipPath>
	<g style="clip-path:url(#SVGID_00000146501619718335778160000017764081007598097832_);">
		<path class="st1" d="M21.1,5.6H2.9C2.7,5.6,2.5,5.8,2.5,6v10c0,0.2,0.2,0.4,0.4,0.4h18.2c0.2,0,0.4-0.2,0.4-0.4V6
			C21.5,5.8,21.3,5.6,21.1,5.6z M20.7,15.6H3.3V9.7h17.5V15.6z M20.7,8.9H3.3V6.4h17.5V8.9z"/>
		<path class="st1" d="M9.5,7.3h-5c-0.2,0-0.4,0.2-0.4,0.4C4.1,7.9,4.3,8,4.5,8h5c0.2,0,0.4-0.2,0.4-0.4C9.9,7.4,9.7,7.3,9.5,7.3z"
			/>
		<path class="st1" d="M12,7.3h-0.8c-0.2,0-0.4,0.2-0.4,0.4C10.8,7.9,11,8,11.2,8H12c0.2,0,0.4-0.2,0.4-0.4
			C12.4,7.4,12.2,7.3,12,7.3z"/>
		<path class="st1" d="M14.5,7.3h-0.8c-0.2,0-0.4,0.2-0.4,0.4c0,0.2,0.2,0.4,0.4,0.4h0.8c0.2,0,0.4-0.2,0.4-0.4
			C14.9,7.4,14.7,7.3,14.5,7.3z"/>
		<path class="st1" d="M17,7.3h-0.8c-0.2,0-0.4,0.2-0.4,0.4c0,0.2,0.2,0.4,0.4,0.4H17c0.2,0,0.4-0.2,0.4-0.4
			C17.4,7.4,17.2,7.3,17,7.3z"/>
		<path class="st1" d="M19.5,7.3h-0.8c-0.2,0-0.4,0.2-0.4,0.4c0,0.2,0.2,0.4,0.4,0.4h0.8c0.2,0,0.4-0.2,0.4-0.4
			C19.9,7.4,19.7,7.3,19.5,7.3z"/>
		<path class="st1" d="M11.2,10.6H4.5c-0.2,0-0.4,0.2-0.4,0.4v3.3c0,0.2,0.2,0.4,0.4,0.4h6.6c0.2,0,0.4-0.2,0.4-0.4V11
			C11.6,10.7,11.4,10.6,11.2,10.6z M10.8,13.9H4.9V13h5.9V13.9z M10.8,12.2H4.9v-0.9h5.9V12.2z"/>
		<path class="st1" d="M19.5,10.6H17c-0.2,0-0.4,0.2-0.4,0.4v3.3c0,0.2,0.2,0.4,0.4,0.4h2.5c0.2,0,0.4-0.2,0.4-0.4V11
			C19.9,10.7,19.7,10.6,19.5,10.6z M19.1,13.9h-1.7V13h1.7V13.9z M19.1,12.2h-1.7v-0.9h1.7V12.2z"/>
		<path class="st1" d="M23.6,17.2h-0.4V5.6c0-0.9-0.7-1.6-1.6-1.6H2.5c-0.9,0-1.6,0.7-1.6,1.6v11.6H0.4c-0.2,0-0.4,0.2-0.4,0.4v0.8
			c0,0.9,0.7,1.6,1.6,1.6h20.7c0.9,0,1.6-0.7,1.6-1.6v-0.8C24,17.4,23.8,17.2,23.6,17.2z M1.6,5.6c0-0.5,0.4-0.9,0.9-0.9h19.1
			c0.5,0,0.9,0.4,0.9,0.9v11.6H1.6V5.6z M23.2,18.4c0,0.5-0.4,0.9-0.9,0.9H1.6c-0.5,0-0.9-0.4-0.9-0.9V18h8.8c0,0,0,0,0,0
			c0,0.2,0.2,0.4,0.4,0.4h4.1c0.2,0,0.4-0.2,0.4-0.4c0,0,0,0,0,0h8.8V18.4z"/>
		<path class="st1" d="M15.3,10.6h-2.5c-0.2,0-0.4,0.2-0.4,0.4v3.3c0,0.2,0.2,0.4,0.4,0.4h2.5c0.2,0,0.4-0.2,0.4-0.4V11
			C15.7,10.7,15.5,10.6,15.3,10.6z M14.9,13.9h-1.7V13h1.7V13.9z M14.9,12.2h-1.7v-0.9h1.7V12.2z"/>
	</g>
</g>
</svg>
